flags/ug.svg

<svg width="512" height="512" viewBox="0 0 512 512" fill="none" xmlns="http://www.w3.org/2000/svg">
<path d="M0 394.668H512V512.001H0V394.668Z" fill="var(--flag-palette-bright-red, #d80027)"/>
<path d="M0 309.332H512V426.665H0V309.332Z" fill="var(--flag-palette-yellow, #ffda44)"/>
<path d="M0 223.998H512V341.331H0V223.998Z" fill="var(--flag-palette-black, #333333)"/>
<path d="M0 138.668H512V256.001H0V138.668Z" fill="var(--flag-palette-bright-red, #d80027)"/>
<path d="M0 53.334H512V170.667H0V53.334Z" fill="var(--flag-palette-yellow, #ffda44)"/>
<rect width="512" height="85.3333" fill="var(--flag-palette-black, #333333)"/>
<path d="M341.426 256C341.426 303.183 303.183 341.426 256 341.426C208.817 341.426 170.574 303.183 170.574 256C170.574 208.817 208.817 170.574 256 170.574C303.183 170.574 341.426 208.817 341.426 256Z" fill="var(--flag-palette-white, #eeeeee)"/>
<path d="M287.295 260.357L256 246.796C256 246.796 263.322 222.493 263.712 220.83C263.997 219.615 264.149 218.348 264.149 217.046C264.149 212.435 262.28 208.261 259.258 205.241L267.128 197.371C262.093 192.336 255.136 189.221 247.452 189.221C239.768 189.221 232.811 192.335 227.776 197.371L235.646 205.241C232.624 208.262 230.756 212.436 230.756 217.046C230.756 218.732 231.011 220.357 231.476 221.892L219.627 233.74H241.163C241.163 233.74 232.259 247.114 227.398 258.097C222.537 269.079 227.465 282.486 238.699 287.48L245.195 290.367L256 300.523V311.653L244.87 322.783H267.131V300.522L277.288 290.365H298.296C298.397 290.156 298.503 289.952 298.599 289.738C303.59 278.505 298.53 265.349 287.295 260.357Z" fill="var(--flag-palette-black, #333333)"/>
</svg>

<svg xmlns="http://www.w3.org/2000/svg" width="512" height="512" fill="none"><path fill="var(--flag-palette-bright-red, #d80027)" d="M0 394.7h512V512H0z"/><path fill="var(--flag-palette-yellow, #ffda44)" d="M0 309.3h512v117.4H0z"/><path fill="var(--flag-palette-black, #333333)" d="M0 224h512v117.3H0z"/><path fill="var(--flag-palette-bright-red, #d80027)" d="M0 138.7h512V256H0z"/><path fill="var(--flag-palette-yellow, #ffda44)" d="M0 53.3h512v117.4H0z"/><path fill="var(--flag-palette-black, #333333)" d="M0 0h512v85.3H0z"/><path fill="var(--flag-palette-white, #eeeeee)" d="M341.4 256a85.4 85.4 0 1 1-170.8 0 85.4 85.4 0 0 1 170.8 0"/><path fill="var(--flag-palette-black, #333333)" d="M287.3 260.4 256 246.8l7.7-26a17 17 0 0 0-4.4-15.6l7.8-7.8a27.7 27.7 0 0 0-39.3 0l7.8 7.8a17 17 0 0 0-4.1 16.7l-11.9 11.8h21.6s-9 13.4-13.8 24.4 0 24.4 11.3 29.4l6.5 2.9 10.8 10.1v11.2l-11.1 11H267v-22.2l10.2-10.1h21l.3-.7a22 22 0 0 0-11.3-29.3"/></svg>
